cssgg/oculus.svg

<svg
  width="24"
  height="24"
  viewBox="0 0 24 24"
  fill="none"
  xmlns="http://www.w3.org/2000/svg"
>
  <path
    fill-rule="evenodd"
    clip-rule="evenodd"
    d="M16 10H8C6.89543 10 6 10.8954 6 12C6 13.1046 6.89543 14 8 14H16C17.1046 14 18 13.1046 18 12C18 10.8954 17.1046 10 16 10ZM8 6C4.68629 6 2 8.68629 2 12C2 15.3137 4.68629 18 8 18H16C19.3137 18 22 15.3137 22 12C22 8.68629 19.3137 6 16 6H8Z"
    fill="currentColor"
  />
</svg>

<svg viewBox="0 0 24 24" xmlns="http://www.w3.org/2000/svg"><path fill-rule="evenodd" d="M16 10H8c-1.11 0-2 .89-2 2 0 1.1.89 2 2 2h8c1.1 0 2-.9 2-2 0-1.11-.9-2-2-2ZM8 6c-3.32 0-6 2.68-6 6 0 3.31 2.68 6 6 6h8c3.31 0 6-2.69 6-6 0-3.32-2.69-6-6-6H8Z"/></svg>
